X: 1
T: The Ruined Old Cottage In The Glen
R: reel
M: 4/4
L: 1/8
K: Edor
|:B2 AF D2 FA|B~A3 (3Bcd ef|dBAF DEFA|BdAF FEEA:|
|B2 ed BdAd|(3Bcd ef gfed|B2 ed BdAd|(3Bcd AF FEEA|
|ABed BdAd|(3Bcd ef g2 ga|bg (3agf gfed|BdAF FEEA|


Tune 557	Setting 15830

